X:1
T:New York -- Reel
R:reel
B:Ryan's Mammoth Collection
N: 292
Z: Contributed by Ray Davies,  ray:davies99.freeserve.co.uk
M:2/4
L:1/16
K:G
((3DEF)|\
vGBAG GBdB | cdef gedB | G2(BA) GBdB | ABAG FDF"4"A |
G2(BA) GBdB | cdef (3ggg(dB) | "4"edc"4"e dBGB | AGF"4"A G2:|
K:D
|:uFG|\
v(BA)AA A2Bc | dcde f2(ef) | gfeg fedf | edcB AGFG |
 (BA)AA A2Bc | dcde f2(ef) | gfeg fedf | edc"4"e d2:|
